svg/u1f9e4.svg

<svg viewBox="0 0 128 128" xmlns="http://www.w3.org/2000/svg">
  <g>
    <g>
      <path d="M61,55.99c-0.39,1.82-1.3,6.86-1.5,8.69c-0.26,2.32-0.22,5.44,0.04,7.95 c0.2,1.96,1.52,10.39,2.08,13.94c0.15,0.95-0.37,1.87-1.26,2.22c-2.87,1.16-9.69,3.66-19.13,5.47 c-8.61,1.65-14.05,2.32-16.65,2.58c-1.04,0.1-1.99-0.58-2.21-1.61c-1.24-5.71-5.39-24.15-10.31-37.67 c-0.63-1.73-7.57-22.37-7.57-22.37c-1.12-3.08-0.34-6.07,2.59-7.27c3.01-1.24,5.23,0.17,6.36,2.84l4.61,12.39 c0.22,0.52,0.7,1.45,1.24,1.3c0.58-0.17,0.73-0.68,0.58-1.25c-0.99-3.89-5.05-16.67-5.53-19.12c-0.66-3.39,0.36-6.24,3.47-7.05 c3.11-0.81,5.8,1.41,6.49,3.94c0.69,2.53,5.62,19.67,5.62,19.67c0.42,1.16,1.57,0.35,1.46-0.26l-4.18-22.88 c-0.82-4.79,1.7-7.69,4.86-7.82c2.54-0.1,5.3,1.14,6.12,5.3l4.02,23.89c0.28,1.05,1.23,0.97,1.14-0.27l-1.36-20.62 c-0.28-4.88,1.76-6.43,4.33-6.59c3.85-0.24,5.43,1.99,5.76,6.28c0.17,2.23,1.83,19.14,1.83,19.14c0.02,0.27,0.05,0.72,0.05,0.72 c1.11-1.35,2.56-2.71,4.86-2.74c2.09-0.03,3.78,0.43,4.79,4.31C64.47,42.49,62.03,51.21,61,55.99z" fill="#82AEC0"/>
      <path d="M47.77,55.79c-0.42-6.23,0.23-17.77,5.96-20.5l0.2,2.23c-3.49,4.81-4.51,18.91-4.58,20.86 C49.28,60.34,48.02,59.48,47.77,55.79z" fill="#2F7889"/>
      <g>
        <path d="M28.85,96.3c0,0-1.55-0.19-2.35-2.34c-0.8-2.15-2.74-11.9-2.82-12.73 c-0.17-1.74,0.28-1.75,0.57-1.74c0.38,0.02,0.83,0.6,1.28,2.45C26.33,85.22,28.85,96.3,28.85,96.3z" fill="#2F7889"/>
        <path d="M36.61,95.08c0,0-1.55-0.19-2.35-2.34c-0.8-2.15-2.69-11.67-2.78-12.49 c-0.19-1.78,0.14-1.86,0.35-1.95c0.4-0.17,0.94,0.27,1.46,2.42C34.08,84,36.61,95.08,36.61,95.08z" fill="#2F7889"/>
        <path d="M43.64,93.67c0,0-1.55-0.19-2.35-2.34c-0.62-1.66-2.23-8.54-2.77-11.94 c-0.21-1.33-0.03-2.38,0.55-2.39c0.26-0.01,0.67-0.3,1.26,2.31C41.06,82.6,43.64,93.67,43.64,93.67z" fill="#2F7889"/>
        <path d="M56.39,90.26c0,0,1.31-0.84,1.11-3.12c-0.16-1.76-1.63-8.69-2.58-12 c-0.16-0.55-0.66-1.77-1.32-1.6c-0.66,0.17-0.63,0.87-0.32,2.32C53.97,79.15,56.39,90.26,56.39,90.26z" fill="#2F7889"/>
        <path d="M49.06,92.34c0,0,1.31-0.84,1.11-3.12c-0.15-1.7-1.52-8.17-2.47-11.6 c-0.33-1.19-0.51-2.22-1.35-2.23c-0.72-0.01-0.71,1.14-0.4,2.55C46.24,79.35,49.06,92.34,49.06,92.34z" fill="#2F7889"/>
      </g>
    </g>
    <g>
      <path d="M66.81,80.03c0.38,1.82,1.24,6.87,1.44,8.7c0.24,2.32,0.17,5.44-0.11,7.95 c-0.21,1.84-1.44,9.38-2.07,13.22c-0.23,1.37,0.52,2.7,1.81,3.21c3.18,1.27,9.66,3.6,18.41,5.34c8.27,1.65,14.07,1.91,17.1,1.89 c1.41-0.01,2.61-1.01,2.88-2.39c1.16-6.06,4.63-22.95,9.49-35.96c0.64-1.72,7.75-22.31,7.75-22.31c1.14-3.07,0.39-6.07-2.53-7.29 c-3-1.26-5.23,0.13-6.39,2.79l-5.32,12.96c-0.22,0.52-0.62,0.68-0.91,0.57c-0.29-0.11-0.31-0.41-0.15-0.99 c1.02-3.88,5.01-17.58,5.51-20.02c0.59-2.87-0.48-5.54-3.58-6.38c-3.1-0.83-5.68,0.9-6.39,3.43c-0.71,2.53-5.73,20.88-5.73,20.88 c-0.16,0.62-1.36,0.42-1.11-0.63l4.92-23.36c0.75-4.63-1.06-7.05-4.32-7.67c-3.25-0.62-5.91,0.86-6.72,5.49 c0,0-4.23,23.54-4.38,24.18c-0.19,0.77-1.36,0.66-1.17-0.33l1.86-21.82c0.09-4.44-2.25-5.97-5.12-6.01 c-4.01-0.05-5.61,2.81-5.95,6.73c-0.19,2.23-1.98,19.41-1.98,19.41s-1.99-2.56-4.63-2.49c-1.26,0.03-4.33,0.67-4.54,4.85 C64.71,66.94,65.82,75.25,66.81,80.03z" fill="#82AEC0"/>
      <path d="M70.99,79.54c-0.89-6.29,0.25-20.05,0.25-20.05c1.41,0.28,2.79,2.13,2.79,2.13L72.6,82.24 C72.6,82.24,71.57,83.64,70.99,79.54z" fill="#2F7889"/>
      <g>
        <path d="M71.85,114.52c0,0-1.34-0.79-1.23-3.08c0.09-1.84,1.49-9.31,2.27-12.48 c0.45-1.84,1-1.77,1.24-1.74c0.42,0.04,0.71,0.68,0.35,2.79C73.91,103.35,71.85,114.52,71.85,114.52z" fill="#2F7889"/>
        <path d="M79.54,116.93c0,0-1.34-0.79-1.23-3.08c0.09-1.84,1.46-9.29,2.27-12.46 c0.47-1.83,1.02-1.79,1.26-1.76c0.41,0.06,0.67,0.52,0.33,2.79C81.65,105.76,79.54,116.93,79.54,116.93z" fill="#2F7889"/>
        <path d="M86.45,118.48c0,0-1.34-0.79-1.23-3.08c0.09-1.84,1.94-11.01,2.27-12.47 c0.33-1.46,0.65-2.01,1.17-1.93c0.52,0.08,0.84,0.49,0.42,2.97C88.51,107.31,86.45,118.48,86.45,118.48z" fill="#2F7889"/>
        <path d="M99.49,120.15c0,0,1.54-0.26,2.25-2.43c0.58-1.77,2.07-9.32,2.42-12.52 c0.08-0.75,0.02-2.08-0.46-2.2c-0.4-0.1-0.89,0.03-1.4,2.68C101.68,109,99.49,120.15,99.49,120.15z" fill="#2F7889"/>
        <path d="M92.08,119.4c0,0,1.54-0.26,2.25-2.43s2.32-12.42,2.38-13.25c0.08-1.22-0.28-1.55-0.74-1.44 c-0.47,0.1-0.8,1.3-1.07,2.66C94.24,108.25,92.08,119.4,92.08,119.4z" fill="#2F7889"/>
      </g>
    </g>
  </g>
</svg>

<svg viewBox="0 0 128 128" xmlns="http://www.w3.org/2000/svg">
  <defs/>
  <path d="M61,55.99 C60.61,57.81 59.7,62.85 59.5,64.68 C59.24,67 59.28,70.12 59.54,72.63 C59.74,74.59 61.06,83.02 61.62,86.57 C61.77,87.52 61.25,88.44 60.36,88.79 C57.49,89.95 50.67,92.45 41.23,94.26 C32.62,95.91 27.18,96.58 24.58,96.84 C23.54,96.94 22.59,96.26 22.37,95.23 C21.13,89.52 16.98,71.08 12.06,57.56 C11.43,55.83 4.49,35.19 4.49,35.19 C3.37,32.11 4.15,29.12 7.08,27.92 C10.09,26.68 12.31,28.09 13.44,30.76 L18.05,43.15 C18.27,43.67 18.75,44.6 19.29,44.45 C19.87,44.28 20.02,43.77 19.87,43.2 C18.88,39.31 14.82,26.53 14.34,24.08 C13.68,20.69 14.7,17.84 17.81,17.03 C20.92,16.22 23.61,18.44 24.3,20.97 C24.99,23.5 29.92,40.64 29.92,40.64 C30.34,41.8 31.49,40.99 31.38,40.38 L27.2,17.5 C26.38,12.71 28.9,9.81 32.06,9.68 C34.6,9.58 37.36,10.82 38.18,14.98 L42.2,38.87 C42.48,39.92 43.43,39.84 43.34,38.6 L41.98,17.98 C41.7,13.1 43.74,11.55 46.31,11.39 C50.16,11.15 51.74,13.38 52.07,17.67 C52.24,19.9 53.9,36.81 53.9,36.81 C53.92,37.08 53.95,37.53 53.95,37.53 C55.06,36.18 56.51,34.82 58.81,34.79 C60.9,34.76 62.59,35.22 63.6,39.1 C64.47,42.49 62.03,51.21 61,55.99 Z" fill="#82AEC0"/>
  <path d="M47.77,55.79 C47.35,49.56 48,38.02 53.73,35.29 L53.93,37.52 C50.44,42.33 49.42,56.43 49.35,58.38 C49.28,60.34 48.02,59.48 47.77,55.79 Z" fill="#2F7889"/>
  <path d="M28.85,96.3 C28.85,96.3 27.3,96.11 26.5,93.96 C25.7,91.81 23.76,82.06 23.68,81.23 C23.51,79.49 23.96,79.48 24.25,79.49 C24.63,79.51 25.08,80.09 25.53,81.94 C26.33,85.22 28.85,96.3 28.85,96.3 Z" fill="#2F7889"/>
  <path d="M36.61,95.08 C36.61,95.08 35.06,94.89 34.26,92.74 C33.46,90.59 31.57,81.07 31.48,80.25 C31.29,78.47 31.62,78.39 31.83,78.3 C32.23,78.13 32.77,78.57 33.29,80.72 C34.08,84 36.61,95.08 36.61,95.08 Z" fill="#2F7889"/>
  <path d="M43.64,93.67 C43.64,93.67 42.09,93.48 41.29,91.33 C40.67,89.67 39.06,82.79 38.52,79.39 C38.31,78.06 38.49,77.01 39.07,77 C39.33,76.99 39.74,76.7 40.33,79.31 C41.06,82.6 43.64,93.67 43.64,93.67 Z" fill="#2F7889"/>
  <path d="M56.39,90.26 C56.39,90.26 57.7,89.42 57.5,87.14 C57.34,85.38 55.87,78.45 54.92,75.14 C54.76,74.59 54.26,73.37 53.6,73.54 C52.94,73.71 52.97,74.41 53.28,75.86 C53.97,79.15 56.39,90.26 56.39,90.26 Z" fill="#2F7889"/>
  <path d="M49.06,92.34 C49.06,92.34 50.37,91.5 50.17,89.22 C50.02,87.52 48.65,81.05 47.7,77.62 C47.37,76.43 47.19,75.4 46.35,75.39 C45.63,75.38 45.64,76.53 45.95,77.94 C46.24,79.35 49.06,92.34 49.06,92.34 Z" fill="#2F7889"/>
  <path d="M66.81,80.03 C67.19,81.85 68.05,86.9 68.25,88.73 C68.49,91.05 68.42,94.17 68.14,96.68 C67.93,98.52 66.7,106.06 66.07,109.9 C65.84,111.27 66.59,112.6 67.88,113.11 C71.06,114.38 77.54,116.71 86.29,118.45 C94.56,120.1 100.36,120.36 103.39,120.34 C104.8,120.33 106,119.33 106.27,117.95 C107.43,111.89 110.9,95 115.76,81.99 C116.4,80.27 123.51,59.68 123.51,59.68 C124.65,56.61 123.9,53.61 120.98,52.39 C117.98,51.13 115.75,52.52 114.59,55.18 L109.27,68.14 C109.05,68.66 108.65,68.82 108.36,68.71 C108.07,68.6 108.05,68.3 108.21,67.72 C109.23,63.84 113.22,50.14 113.72,47.7 C114.31,44.83 113.24,42.16 110.14,41.32 C107.04,40.49 104.46,42.22 103.75,44.75 C103.04,47.28 98.02,65.63 98.02,65.63 C97.86,66.25 96.66,66.05 96.91,65 L101.83,41.64 C102.58,37.01 100.77,34.59 97.51,33.97 C94.26,33.35 91.6,34.83 90.79,39.46 C90.79,39.46 86.56,63 86.41,63.64 C86.22,64.41 85.05,64.3 85.24,63.31 L87.1,41.49 C87.19,37.05 84.85,35.52 81.98,35.48 C77.97,35.43 76.37,38.29 76.03,42.21 C75.84,44.44 74.05,61.62 74.05,61.62 C74.05,61.62 72.06,59.06 69.42,59.13 C68.16,59.16 65.09,59.8 64.88,63.98 C64.71,66.94 65.82,75.25 66.81,80.03 Z" fill="#82AEC0"/>
  <path d="M70.99,79.54 C70.1,73.25 71.24,59.49 71.24,59.49 C72.65,59.77 74.03,61.62 74.03,61.62 L72.6,82.24 C72.6,82.24 71.57,83.64 70.99,79.54 Z" fill="#2F7889"/>
  <path d="M71.85,114.52 C71.85,114.52 70.51,113.73 70.62,111.44 C70.71,109.6 72.11,102.13 72.89,98.96 C73.34,97.12 73.89,97.19 74.13,97.22 C74.55,97.26 74.84,97.9 74.48,100.01 C73.91,103.35 71.85,114.52 71.85,114.52 Z" fill="#2F7889"/>
  <path d="M79.54,116.93 C79.54,116.93 78.2,116.14 78.31,113.85 C78.4,112.01 79.77,104.56 80.58,101.39 C81.05,99.56 81.6,99.6 81.84,99.63 C82.25,99.69 82.51,100.15 82.17,102.42 C81.65,105.76 79.54,116.93 79.54,116.93 Z" fill="#2F7889"/>
  <path d="M86.45,118.48 C86.45,118.48 85.11,117.69 85.22,115.4 C85.31,113.56 87.16,104.39 87.49,102.93 C87.82,101.47 88.14,100.92 88.66,101 C89.18,101.08 89.5,101.49 89.08,103.97 C88.51,107.31 86.45,118.48 86.45,118.48 Z" fill="#2F7889"/>
  <path d="M99.49,120.15 C99.49,120.15 101.03,119.89 101.74,117.72 C102.32,115.95 103.81,108.4 104.16,105.2 C104.24,104.45 104.18,103.12 103.7,103 C103.3,102.9 102.81,103.03 102.3,105.68 C101.68,109 99.49,120.15 99.49,120.15 Z" fill="#2F7889"/>
  <path d="M92.08,119.4 C92.08,119.4 93.62,119.14 94.33,116.97 C95.04,114.8 96.65,104.55 96.71,103.72 C96.79,102.5 96.43,102.17 95.97,102.28 C95.5,102.38 95.17,103.58 94.9,104.94 C94.24,108.25 92.08,119.4 92.08,119.4 Z" fill="#2F7889"/>
</svg>
